X:1
T:Hope, The Hermit
M:C
L:1/8
Q:1/4=132
S:J. Oxenford & G.A. MacFarren, Old English Ditties, vol.1
K:Bb
F G A|B2 B2 B2 A B|c B A G F2 G A|B2 D2 E2 F2|B,6 B c|
d2 d2 d2 c d|e d c B c2 F2|G A B c d2 c2|B6 A B|c2 c2 c2 d2|
c B A B c2 A B|cd cB A2G2|F6 G A|B2 A B D2 E F|G2 G2 C2 D E|
F G F E D2 C2|B,6 G A|B2 A B D2 E F|G2 G2 C2 D E|F G F E D2 C2|B,6||
